!!!COM: Palestrina, Giovanni Perluigi da
!!!OPR: Missa In duplicibus minoribus (I)
!!!OMD: Benedictus
!!!OTL: First Section
**kern	**kern	**kern	**kern
*Ibass	*Itenor	*Icalto	*Icant
!Bassus	!Tenor	!Altus	!Cantus
*clefF4	*clefGv2	*clefG2	*clefG2
*k[]	*k[]	*k[]	*k[]
*E:phr	*E:phr	*E:phr	*E:phr
*M4/2	*M4/2	*M4/2	*M4/2
=1	=1	=1	=1
0r	0r	0r	1e
.	.	.	1g
=2	=2	=2	=2
0r	0r	1A	1a
.	.	1c	2g
.	.	.	2a
=3	=3	=3	=3
0r	0r	1d	2b
.	.	.	4a
.	.	.	4g
.	.	2c	1a
.	.	2d	.
=4	=4	=4	=4
1E	0r	1e	2g
.	.	.	1cc
1G	.	2.d	.
.	.	.	2b
.	.	4e	.
=5	=5	=5	=5
1A	0r	2f	2a
.	.	4e	2cc
.	.	4d	.
2G	.	1e	2b
2A	.	.	[2a
=6	=6	=6	=6
1B	0r	1d	2a]
.	.	.	2g#
2A	.	2f	2a
[2c	.	[2e	4g
.	.	.	4f
=7	=7	=7	=7
4c]	1A	4e]	1e
4B	.	4d	.
4A	.	4c	.
4G	.	4B	.
2F	1c	1A	2r
[2c	.	.	2e
=8	=8	=8	=8
2c]	1d	1G	1g
2B	.	.	.
2A	2c	1r	1a
2F	2d	.	.
=9	=9	=9	=9
1c	1e	0r	2g
.	.	.	2a
2G	2.d	.	1b
[2d	.	.	.
.	4e	.	.
=10	=10	=10	=10
2d]	2f	2r	1a
2.c	2.e	2A	.
.	.	1c	2.e
4B	4d	.	.
2A	[2c	.	.
.	.	.	4f
=11	=11	=11	=11
1G	2c]	1d	4g
.	.	.	4a
.	2B	.	2b
2A	2A	2c	2cc
4G	2B	2d	4b
4F	.	.	4a
=12	=12	=12	=12
0E	2c	0e	2g
.	4B	.	1a
.	4A	.	.
.	1B	.	.
.	.	.	2g#
=13	=13	=13	=13
0AA	0A	2c	2a
.	.	2A	2a
.	.	2.c	2.e
.	.	4d	4f
=14	=14	=14	=14
2r	0r	2e	2g
2D	.	2.f	2.a
2.F	.	.	.
.	.	4e	4g
.	.	[2d	4f
4G	.	.	4e
=15	=15	=15	=15
1A	1r	2d]	2f
.	.	2c	2e
1r	2r	2f	2d
.	2d	2f	[2a
=16	=16	=16	=16
0r	2.A	2.e	4a]
.	.	.	4b
.	.	.	2.cc
.	4B	4d	.
.	2c	2e	.
.	.	.	4b
.	[2d	[2f	4a
.	.	.	4g
=17	=17	=17	=17
0r	2d]	4f]	2f
.	.	4d	.
.	2c	2.e	1g
.	2B	.	.
.	.	4d	.
.	2B	[2d	2d
=18	=18	=18	=18
2r	1A	4d]	2.e
.	.	4c	.
2A	.	1c	.
.	.	.	4f
2.E	2r	.	[1g
.	[2e	4B	.
4F	.	4A	.
=19	=19	=19	=19
2G	4e]	2B	2g]
.	4d	.	.
1A	4c	2A	4f
.	4B	.	4e
.	2c	1r	2f
2G	2B	.	[2e
=20	=20	=20	=20
2F	2A	1r	2e]
2F	2A	.	2d
[1E	2B	2r	[1e
.	2E	2e	.
=21	=21	=21	=21
1E]	2.G	2.B	1e]
.	4A	4c	.
2r	2B	2d	1r
2AA	[2c	[2e	.
=22	=22	=22	=22
2C	2c]	2e]	0r
2D	1B	2d	.
[1E	.	2c	.
.	[2A	2c	.
=23	=23	=23	=23
1E]	2A]	1B	1r
.	2G#	.	.
2r	4A	2.c	2r
.	4B	.	.
2A	4c	.	2e
.	4A	4d	.
=24	=24	=24	=24
2.E	1B	1e	2.g
4F	.	.	4a
2G	2r	2r	2b
[2A	2A	2e	[2cc
=25	=25	=25	=25
2A]	2c	2A	2cc]
2G	2d	2B	2.b
2F	1A	2.c	.
.	.	.	4a
2F	.	.	[2a
.	.	4d	.
=26	=26	=26	=26
1E	2c	2e	2a]
.	2B	2e	2g#
[1A	2A	2c#	1a
.	2D	2d	.
=27	=27	=27	=27
1A]	2.F	2r	2r
.	.	2A	2a
.	4G	.	.
1r	1A	2.c	2.e
.	.	4d	4f
=28	=28	=28	=28
2r	0r	2e	2g
2D	.	1f	1a
2F	.	.	.
2G	.	[2e	2g
=29	=29	=29	=29
0A	1D	4e]	1f
.	.	4d	.
.	.	1d	.
.	2.F	.	1f
.	.	4c	.
.	4G	4B	.
=30	=30	=30	=30
1AA	2A	2c	[0e
.	2.c	2A	.
1AA	.	1c	.
.	4B	.	.
.	[2A	.	.
=31	=31	=31	=31
[0E	2A]	[0B	1e_
.	2G#	.	.
.	[1G#	.	1e_
=32	=32	=32	=32
0E]	0G#]	0B]	0e]
*-	*-	*-	*-
!!!CDT: 1525/^1526/-1594/2/2
!!!OCY: Italia
!!!AGN: Mass (Paraphrase)
!!!AST: renaissance, vocal
!!!ASW: Gregorian Mass
!!!PWK: Masses, Book Mantuan I
!!!RNB: Cadence finals: A
!!!YOR: Le Opere Complete, v. 18, p. 42
!!!YOO: Rome, Italy: Fratelli Scalera
!!!END: 1992//
!!!EED: John Miller
!!!YEC: Copyright 2000, John Miller
!!!YEN: United States of America
!!!YEM: Rights to all derivative electronic formats reserved.
!!!YEM: Refer to licensing agreement for further details.
!!!YEM: This file must be accompanied by the licensing agreement.
!!!YEM: A copy of the licensing agreement may be found at http://www.music-cog.ohio-state.edu/HumdrumDatabases/Palestrina/license.txt
!!!EMD: converted to Humdrum by Bret Aarden
